P2
# Generated grayscale fixture
96 96
255
15 15 15 15 15 15 15 15 15 15 15 15 240 240 240 240 240 240 240 240 240 240 240 240 15 15 15 15 15 15 15 15 15 15 15 15 240 240 240 240 240 240 240 240 240 240 240 240 15 15 15 15 15 15 15 15 15 15 15 15 240 240 240 240 240 240 240 240 240 240 240 240 15 15 15 15 15 15 15 15 15 15 15 15 240 240 240 240 240 240 240 240 240 240 240 240
15 15 15 15 15 15 15 15 15 15 15 15 240 240 240 240 240 240 240 240 240 240 240 240 15 15 15 15 15 15 15 15 15 15 15 15 240 240 240 240 240 240 240 240 240 240 240 240 15 15 15 15 15 15 15 15 15 15 15 15 240 240 240 240 240 240 240 240 240 240 240 240 15 15 15 15 15 15 15 15 15 15 15 15 240 240 240 240 240 240 240 240 240 240 240 240
15 15 15 15 15 15 15 15 15 15 15 15 240 240 240 240 240 240 240 240 240 240 240 240 15 15 15 15 15 15 15 15 15 15 15 15 240 240 240 240 240 240 240 240 240 240 240 240 15 15 15 15 15 15 15 15 15 15 15 15 240 240 240 240 240 240 240 240 240 240 240 240 15 15 15 15 15 15 15 15 15 15 15 15 240 240 240 240 240 240 240 240 240 240 240 240
15 15 15 15 15 15 15 15 15 15 15 15 240 240 240 240 240 240 240 240 240 240 240 240 15 15 15 15 15 15 15 15 15 15 15 15 240 240 240 240 240 240 240 240 240 240 240 240 15 15 15 15 15 15 15 15 15 15 15 15 240 240 240 240 240 240 240 240 240 240 240 240 15 15 15 15 15 15 15 15 15 15 15 15 240 240 240 240 240 240 240 240 240 240 240 240
15 15 15 15 15 15 15 15 15 15 15 15 240 240 240 240 240 240 240 240 240 240 240 240 15 15 15 15 15 15 15 15 15 15 15 15 240 240 240 240 240 240 240 240 240 240 240 240 15 15 15 15 15 15 15 15 15 15 15 15 240 240 240 240 240 240 240 240 240 240 240 240 15 15 15 15 15 15 15 15 15 15 15 15 240 240 240 240 240 240 240 240 240 240 240 240
15 15 15 15 15 15 15 15 15 15 15 15 240 240 240 240 240 240 240 240 240 240 240 240 15 15 15 15 15 15 15 15 15 15 15 15 240 240 240 240 240 240 240 240 240 240 240 240 15 15 15 15 15 15 15 15 15 15 15 15 240 240 240 240 240 240 240 240 240 240 240 240 15 15 15 15 15 15 15 15 15 15 15 15 240 240 240 240 240 240 240 240 240 240 240 240
15 15 15 15 15 15 15 15 15 15 15 15 240 240 240 240 240 240 240 240 240 240 240 240 15 15 15 15 15 15 15 15 15 15 15 15 240 240 240 240 240 240 240 240 240 240 240 240 15 15 15 15 15 15 15 15 15 15 15 15 240 240 240 240 240 240 240 240 240 240 240 240 15 15 15 15 15 15 15 15 15 15 15 15 240 240 240 240 240 240 240 240 240 240 240 240
15 15 15 15 15 15 15 15 15 15 15 15 240 240 240 240 240 240 240 240 240 240 240 240 15 15 15 15 15 15 15 15 15 15 15 15 240 240 240 240 240 240 240 240 240 240 240 240 15 15 15 15 15 15 15 15 15 15 15 15 240 240 240 240 240 240 240 240 240 240 240 240 15 15 15 15 15 15 15 15 15 15 15 15 240 240 240 240 240 240 240 240 240 240 240 240
15 15 15 15 15 15 15 15 15 15 15 15 240 240 240 240 240 240 240 240 240 240 240 240 15 15 15 15 15 15 15 15 15 15 15 15 240 240 240 240 240 240 240 240 240 240 240 240 15 15 15 15 15 15 15 15 15 15 15 15 240 240 240 240 240 240 240 240 240 240 240 240 15 15 15 15 15 15 15 15 15 15 15 15 240 240 240 240 240 240 240 240 240 240 240 240
15 15 15 15 15 15 15 15 15 15 15 15 240 240 240 240 240 240 240 240 240 240 240 240 15 15 15 15 15 15 15 15 15 15 15 15 240 240 240 240 240 240 240 240 240 240 240 240 15 15 15 15 15 15 15 15 15 15 15 15 240 240 240 240 240 240 240 240 240 240 240 240 15 15 15 15 15 15 15 15 15 15 15 15 240 240 240 240 240 240 240 240 240 240 240 240
15 15 15 15 15 15 15 15 15 15 15 15 240 240 240 240 240 240 240 240 240 240 240 240 15 15 15 15 15 15 15 15 15 15 15 15 240 240 240 240 240 240 240 240 240 240 240 240 15 15 15 15 15 15 15 15 15 15 15 15 240 240 240 240 240 240 240 240 240 240 240 240 15 15 15 15 15 15 15 15 15 15 15 15 240 240 240 240 240 240 240 240 240 240 240 240
15 15 15 15 15 15 15 15 15 15 15 15 240 240 240 240 240 240 240 240 240 240 240 240 15 15 15 15 15 15 15 15 15 15 15 15 240 240 240 240 240 240 240 240 240 240 240 240 15 15 15 15 15 15 15 15 15 15 15 15 240 240 240 240 240 240 240 240 240 240 240 240 15 15 15 15 15 15 15 15 15 15 15 15 240 240 240 240 240 240 240 240 240 240 240 240
240 240 240 240 240 240 240 240 240 240 240 240 15 15 15 15 15 15 15 15 15 15 15 15 240 240 240 240 240 240 240 240 240 240 240 240 15 15 15 15 15 15 15 15 15 15 15 15 240 240 240 240 240 240 240 240 240 240 240 240 15 15 15 15 15 15 15 15 15 15 15 15 240 240 240 240 240 240 240 240 240 240 240 240 15 15 15 15 15 15 15 15 15 15 15 15
240 240 240 240 240 240 240 240 240 240 240 240 15 15 15 15 15 15 15 15 15 15 15 15 240 240 240 240 240 240 240 240 240 240 240 240 15 15 15 15 15 15 15 15 15 15 15 15 240 240 240 240 240 240 240 240 240 240 240 240 15 15 15 15 15 15 15 15 15 15 15 15 240 240 240 240 240 240 240 240 240 240 240 240 15 15 15 15 15 15 15 15 15 15 15 15
240 240 240 240 240 240 240 240 240 240 240 240 15 15 15 15 15 15 15 15 15 15 15 15 240 240 240 240 240 240 240 240 240 240 240 240 15 15 15 15 15 15 15 15 15 15 15 15 240 240 240 240 240 240 240 240 240 240 240 240 15 15 15 15 15 15 15 15 15 15 15 15 240 240 240 240 240 240 240 240 240 240 240 240 15 15 15 15 15 15 15 15 15 15 15 15
240 240 240 240 240 240 240 240 240 240 240 240 15 15 15 15 15 15 15 15 15 15 15 15 240 240 240 240 240 240 240 240 240 240 240 240 15 15 15 15 15 15 15 15 15 15 15 15 240 240 240 240 240 240 240 240 240 240 240 240 15 15 15 15 15 15 15 15 15 15 15 15 240 240 240 240 240 240 240 240 240 240 240 240 15 15 15 15 15 15 15 15 15 15 15 15
240 240 240 240 240 240 240 240 240 240 240 240 15 15 15 15 15 15 15 15 15 15 15 15 240 240 240 240 240 240 240 240 240 240 240 240 15 15 15 15 15 15 15 15 15 15 15 15 240 240 240 240 240 240 240 240 240 240 240 240 15 15 15 15 15 15 15 15 15 15 15 15 240 240 240 240 240 240 240 240 240 240 240 240 15 15 15 15 15 15 15 15 15 15 15 15
240 240 240 240 240 240 240 240 240 240 240 240 15 15 15 15 15 15 15 15 15 15 15 15 240 240 240 240 240 240 240 240 240 240 240 240 15 15 15 15 15 15 15 15 15 15 15 15 240 240 240 240 240 240 240 240 240 240 240 240 15 15 15 15 15 15 15 15 15 15 15 15 240 240 240 240 240 240 240 240 240 240 240 240 15 15 15 15 15 15 15 15 15 15 15 15
240 240 240 240 240 240 240 240 240 240 240 240 15 15 15 15 15 15 15 15 15 15 15 15 240 240 240 240 240 240 240 240 240 240 240 240 15 15 15 15 15 15 15 15 15 15 15 15 240 240 240 240 240 240 240 240 240 240 240 240 15 15 15 15 15 15 15 15 15 15 15 15 240 240 240 240 240 240 240 240 240 240 240 240 15 15 15 15 15 15 15 15 15 15 15 15
240 240 240 240 240 240 240 240 240 240 240 240 15 15 15 15 15 15 15 15 15 15 15 15 240 240 240 240 240 240 240 240 240 240 240 240 15 15 15 15 15 15 15 15 15 15 15 15 240 240 240 240 240 240 240 240 240 240 240 240 15 15 15 15 15 15 15 15 15 15 15 15 240 240 240 240 240 240 240 240 240 240 240 240 15 15 15 15 15 15 15 15 15 15 15 15
240 240 240 240 240 240 240 240 240 240 240 240 15 15 15 15 15 15 15 15 15 15 15 15 240 240 240 240 240 240 240 240 240 240 240 240 15 15 15 15 15 15 15 15 15 15 15 15 240 240 240 240 240 240 240 240 240 240 240 240 15 15 15 15 15 15 15 15 15 15 15 15 240 240 240 240 240 240 240 240 240 240 240 240 15 15 15 15 15 15 15 15 15 15 15 15
240 240 240 240 240 240 240 240 240 240 240 240 15 15 15 15 15 15 15 15 15 15 15 15 240 240 240 240 240 240 240 240 240 240 240 240 15 15 15 15 15 15 15 15 15 15 15 15 240 240 240 240 240 240 240 240 240 240 240 240 15 15 15 15 15 15 15 15 15 15 15 15 240 240 240 240 240 240 240 240 240 240 240 240 15 15 15 15 15 15 15 15 15 15 15 15
240 240 240 240 240 240 240 240 240 240 240 240 15 15 15 15 15 15 15 15 15 15 15 15 240 240 240 240 240 240 240 240 240 240 240 240 15 15 15 15 15 15 15 15 15 15 15 15 240 240 240 240 240 240 240 240 240 240 240 240 15 15 15 15 15 15 15 15 15 15 15 15 240 240 240 240 240 240 240 240 240 240 240 240 15 15 15 15 15 15 15 15 15 15 15 15
240 240 240 240 240 240 240 240 240 240 240 240 15 15 15 15 15 15 15 15 15 15 15 15 240 240 240 240 240 240 240 240 240 240 240 240 15 15 15 15 15 15 15 15 15 15 15 15 240 240 240 240 240 240 240 240 240 240 240 240 15 15 15 15 15 15 15 15 15 15 15 15 240 240 240 240 240 240 240 240 240 240 240 240 15 15 15 15 15 15 15 15 15 15 15 15
15 15 15 15 15 15 15 15 15 15 15 15 240 240 240 240 240 240 240 240 240 240 240 240 15 15 15 15 15 15 15 15 15 15 15 15 240 240 240 240 240 240 240 240 240 240 240 240 15 15 15 15 15 15 15 15 15 15 15 15 240 240 240 240 240 240 240 240 240 240 240 240 15 15 15 15 15 15 15 15 15 15 15 15 240 240 240 240 240 240 240 240 240 240 240 240
15 15 15 15 15 15 15 15 15 15 15 15 240 240 240 240 240 240 240 240 240 240 240 240 15 15 15 15 15 15 15 15 15 15 15 15 240 240 240 240 240 240 240 240 240 240 240 240 15 15 15 15 15 15 15 15 15 15 15 15 240 240 240 240 240 240 240 240 240 240 240 240 15 15 15 15 15 15 15 15 15 15 15 15 240 240 240 240 240 240 240 240 240 240 240 240
15 15 15 15 15 15 15 15 15 15 15 15 240 240 240 240 240 240 240 240 240 240 240 240 15 15 15 15 15 15 15 15 15 15 15 15 240 240 240 240 240 240 240 240 240 240 240 240 15 15 15 15 15 15 15 15 15 15 15 15 240 240 240 240 240 240 240 240 240 240 240 240 15 15 15 15 15 15 15 15 15 15 15 15 240 240 240 240 240 240 240 240 240 240 240 240
15 15 15 15 15 15 15 15 15 15 15 15 240 240 240 240 240 240 240 240 240 240 240 240 15 15 15 15 15 15 15 15 15 15 15 15 240 240 240 240 240 240 240 240 240 240 240 240 15 15 15 15 15 15 15 15 15 15 15 15 240 240 240 240 240 240 240 240 240 240 240 240 15 15 15 15 15 15 15 15 15 15 15 15 240 240 240 240 240 240 240 240 240 240 240 240
15 15 15 15 15 15 15 15 15 15 15 15 240 240 240 240 240 240 240 240 240 240 240 240 15 15 15 15 15 15 15 15 15 15 15 15 240 240 240 240 240 240 240 240 240 240 240 240 15 15 15 15 15 15 15 15 15 15 15 15 240 240 240 240 240 240 240 240 240 240 240 240 15 15 15 15 15 15 15 15 15 15 15 15 240 240 240 240 240 240 240 240 240 240 240 240
15 15 15 15 15 15 15 15 15 15 15 15 240 240 240 240 240 240 240 240 240 240 240 240 15 15 15 15 15 15 15 15 15 15 15 15 240 240 240 240 240 240 240 240 240 240 240 240 15 15 15 15 15 15 15 15 15 15 15 15 240 240 240 240 240 240 240 240 240 240 240 240 15 15 15 15 15 15 15 15 15 15 15 15 240 240 240 240 240 240 240 240 240 240 240 240
15 15 15 15 15 15 15 15 15 15 15 15 240 240 240 240 240 240 240 240 240 240 240 240 15 15 15 15 15 15 15 15 15 15 15 15 240 240 240 240 240 240 240 240 240 240 240 240 15 15 15 15 15 15 15 15 15 15 15 15 240 240 240 240 240 240 240 240 240 240 240 240 15 15 15 15 15 15 15 15 15 15 15 15 240 240 240 240 240 240 240 240 240 240 240 240
15 15 15 15 15 15 15 15 15 15 15 15 240 240 240 240 240 240 240 240 240 240 240 240 15 15 15 15 15 15 15 15 15 15 15 15 240 240 240 240 240 240 240 240 240 240 240 240 15 15 15 15 15 15 15 15 15 15 15 15 240 240 240 240 240 240 240 240 240 240 240 240 15 15 15 15 15 15 15 15 15 15 15 15 240 240 240 240 240 240 240 240 240 240 240 240
15 15 15 15 15 15 15 15 15 15 15 15 240 240 240 240 240 240 240 240 240 240 240 240 15 15 15 15 15 15 15 15 15 15 15 15 240 240 240 240 240 240 240 240 240 240 240 240 15 15 15 15 15 15 15 15 15 15 15 15 240 240 240 240 240 240 240 240 240 240 240 240 15 15 15 15 15 15 15 15 15 15 15 15 240 240 240 240 240 240 240 240 240 240 240 240
15 15 15 15 15 15 15 15 15 15 15 15 240 240 240 240 240 240 240 240 240 240 240 240 15 15 15 15 15 15 15 15 15 15 15 15 240 240 240 240 240 240 240 240 240 240 240 240 15 15 15 15 15 15 15 15 15 15 15 15 240 240 240 240 240 240 240 240 240 240 240 240 15 15 15 15 15 15 15 15 15 15 15 15 240 240 240 240 240 240 240 240 240 240 240 240
15 15 15 15 15 15 15 15 15 15 15 15 240 240 240 240 240 240 240 240 240 240 240 240 15 15 15 15 15 15 15 15 15 15 15 15 240 240 240 240 240 240 240 240 240 240 240 240 15 15 15 15 15 15 15 15 15 15 15 15 240 240 240 240 240 240 240 240 240 240 240 240 15 15 15 15 15 15 15 15 15 15 15 15 240 240 240 240 240 240 240 240 240 240 240 240
15 15 15 15 15 15 15 15 15 15 15 15 240 240 240 240 240 240 240 240 240 240 240 240 15 15 15 15 15 15 15 15 15 15 15 15 240 240 240 240 240 240 240 240 240 240 240 240 15 15 15 15 15 15 15 15 15 15 15 15 240 240 240 240 240 240 240 240 240 240 240 240 15 15 15 15 15 15 15 15 15 15 15 15 240 240 240 240 240 240 240 240 240 240 240 240
240 240 240 240 240 240 240 240 240 240 240 240 15 15 15 15 15 15 15 15 15 15 15 15 240 240 240 240 240 240 240 240 240 240 240 240 15 15 15 15 15 15 15 15 15 15 15 15 240 240 240 240 240 240 240 240 240 240 240 240 15 15 15 15 15 15 15 15 15 15 15 15 240 240 240 240 240 240 240 240 240 240 240 240 15 15 15 15 15 15 15 15 15 15 15 15
240 240 240 240 240 240 240 240 240 240 240 240 15 15 15 15 15 15 15 15 15 15 15 15 240 240 240 240 240 240 240 240 240 240 240 240 15 15 15 15 15 15 15 15 15 15 15 15 240 240 240 240 240 240 240 240 240 240 240 240 15 15 15 15 15 15 15 15 15 15 15 15 240 240 240 240 240 240 240 240 240 240 240 240 15 15 15 15 15 15 15 15 15 15 15 15
240 240 240 240 240 240 240 240 240 240 240 240 15 15 15 15 15 15 15 15 15 15 15 15 240 240 240 240 240 240 240 240 240 240 240 240 15 15 15 15 15 15 15 15 15 15 15 15 240 240 240 240 240 240 240 240 240 240 240 240 15 15 15 15 15 15 15 15 15 15 15 15 240 240 240 240 240 240 240 240 240 240 240 240 15 15 15 15 15 15 15 15 15 15 15 15
240 240 240 240 240 240 240 240 240 240 240 240 15 15 15 15 15 15 15 15 15 15 15 15 240 240 240 240 240 240 240 240 240 240 240 240 15 15 15 15 15 15 15 15 15 15 15 15 240 240 240 240 240 240 240 240 240 240 240 240 15 15 15 15 15 15 15 15 15 15 15 15 240 240 240 240 240 240 240 240 240 240 240 240 15 15 15 15 15 15 15 15 15 15 15 15
240 240 240 240 240 240 240 240 240 240 240 240 15 15 15 15 15 15 15 15 15 15 15 15 240 240 240 240 240 240 240 240 240 240 240 240 15 15 15 15 15 15 15 15 15 15 15 15 240 240 240 240 240 240 240 240 240 240 240 240 15 15 15 15 15 15 15 15 15 15 15 15 240 240 240 240 240 240 240 240 240 240 240 240 15 15 15 15 15 15 15 15 15 15 15 15
240 240 240 240 240 240 240 240 240 240 240 240 15 15 15 15 15 15 15 15 15 15 15 15 240 240 240 240 240 240 240 240 240 240 240 240 15 15 15 15 15 15 15 15 15 15 15 15 240 240 240 240 240 240 240 240 240 240 240 240 15 15 15 15 15 15 15 15 15 15 15 15 240 240 240 240 240 240 240 240 240 240 240 240 15 15 15 15 15 15 15 15 15 15 15 15
240 240 240 240 240 240 240 240 240 240 240 240 15 15 15 15 15 15 15 15 15 15 15 15 240 240 240 240 240 240 240 240 240 240 240 240 15 15 15 15 15 15 15 15 15 15 15 15 240 240 240 240 240 240 240 240 240 240 240 240 15 15 15 15 15 15 15 15 15 15 15 15 240 240 240 240 240 240 240 240 240 240 240 240 15 15 15 15 15 15 15 15 15 15 15 15
240 240 240 240 240 240 240 240 240 240 240 240 15 15 15 15 15 15 15 15 15 15 15 15 240 240 240 240 240 240 240 240 240 240 240 240 15 15 15 15 15 15 15 15 15 15 15 15 240 240 240 240 240 240 240 240 240 240 240 240 15 15 15 15 15 15 15 15 15 15 15 15 240 240 240 240 240 240 240 240 240 240 240 240 15 15 15 15 15 15 15 15 15 15 15 15
240 240 240 240 240 240 240 240 240 240 240 240 15 15 15 15 15 15 15 15 15 15 15 15 240 240 240 240 240 240 240 240 240 240 240 240 15 15 15 15 15 15 15 15 15 15 15 15 240 240 240 240 240 240 240 240 240 240 240 240 15 15 15 15 15 15 15 15 15 15 15 15 240 240 240 240 240 240 240 240 240 240 240 240 15 15 15 15 15 15 15 15 15 15 15 15
240 240 240 240 240 240 240 240 240 240 240 240 15 15 15 15 15 15 15 15 15 15 15 15 240 240 240 240 240 240 240 240 240 240 240 240 15 15 15 15 15 15 15 15 15 15 15 15 240 240 240 240 240 240 240 240 240 240 240 240 15 15 15 15 15 15 15 15 15 15 15 15 240 240 240 240 240 240 240 240 240 240 240 240 15 15 15 15 15 15 15 15 15 15 15 15
240 240 240 240 240 240 240 240 240 240 240 240 15 15 15 15 15 15 15 15 15 15 15 15 240 240 240 240 240 240 240 240 240 240 240 240 15 15 15 15 15 15 15 15 15 15 15 15 240 240 240 240 240 240 240 240 240 240 240 240 15 15 15 15 15 15 15 15 15 15 15 15 240 240 240 240 240 240 240 240 240 240 240 240 15 15 15 15 15 15 15 15 15 15 15 15
240 240 240 240 240 240 240 240 240 240 240 240 15 15 15 15 15 15 15 15 15 15 15 15 240 240 240 240 240 240 240 240 240 240 240 240 15 15 15 15 15 15 15 15 15 15 15 15 240 240 240 240 240 240 240 240 240 240 240 240 15 15 15 15 15 15 15 15 15 15 15 15 240 240 240 240 240 240 240 240 240 240 240 240 15 15 15 15 15 15 15 15 15 15 15 15
15 15 15 15 15 15 15 15 15 15 15 15 240 240 240 240 240 240 240 240 240 240 240 240 15 15 15 15 15 15 15 15 15 15 15 15 240 240 240 240 240 240 240 240 240 240 240 240 15 15 15 15 15 15 15 15 15 15 15 15 240 240 240 240 240 240 240 240 240 240 240 240 15 15 15 15 15 15 15 15 15 15 15 15 240 240 240 240 240 240 240 240 240 240 240 240
15 15 15 15 15 15 15 15 15 15 15 15 240 240 240 240 240 240 240 240 240 240 240 240 15 15 15 15 15 15 15 15 15 15 15 15 240 240 240 240 240 240 240 240 240 240 240 240 15 15 15 15 15 15 15 15 15 15 15 15 240 240 240 240 240 240 240 240 240 240 240 240 15 15 15 15 15 15 15 15 15 15 15 15 240 240 240 240 240 240 240 240 240 240 240 240
15 15 15 15 15 15 15 15 15 15 15 15 240 240 240 240 240 240 240 240 240 240 240 240 15 15 15 15 15 15 15 15 15 15 15 15 240 240 240 240 240 240 240 240 240 240 240 240 15 15 15 15 15 15 15 15 15 15 15 15 240 240 240 240 240 240 240 240 240 240 240 240 15 15 15 15 15 15 15 15 15 15 15 15 240 240 240 240 240 240 240 240 240 240 240 240
15 15 15 15 15 15 15 15 15 15 15 15 240 240 240 240 240 240 240 240 240 240 240 240 15 15 15 15 15 15 15 15 15 15 15 15 240 240 240 240 240 240 240 240 240 240 240 240 15 15 15 15 15 15 15 15 15 15 15 15 240 240 240 240 240 240 240 240 240 240 240 240 15 15 15 15 15 15 15 15 15 15 15 15 240 240 240 240 240 240 240 240 240 240 240 240
15 15 15 15 15 15 15 15 15 15 15 15 240 240 240 240 240 240 240 240 240 240 240 240 15 15 15 15 15 15 15 15 15 15 15 15 240 240 240 240 240 240 240 240 240 240 240 240 15 15 15 15 15 15 15 15 15 15 15 15 240 240 240 240 240 240 240 240 240 240 240 240 15 15 15 15 15 15 15 15 15 15 15 15 240 240 240 240 240 240 240 240 240 240 240 240
15 15 15 15 15 15 15 15 15 15 15 15 240 240 240 240 240 240 240 240 240 240 240 240 15 15 15 15 15 15 15 15 15 15 15 15 240 240 240 240 240 240 240 240 240 240 240 240 15 15 15 15 15 15 15 15 15 15 15 15 240 240 240 240 240 240 240 240 240 240 240 240 15 15 15 15 15 15 15 15 15 15 15 15 240 240 240 240 240 240 240 240 240 240 240 240
15 15 15 15 15 15 15 15 15 15 15 15 240 240 240 240 240 240 240 240 240 240 240 240 15 15 15 15 15 15 15 15 15 15 15 15 240 240 240 240 240 240 240 240 240 240 240 240 15 15 15 15 15 15 15 15 15 15 15 15 240 240 240 240 240 240 240 240 240 240 240 240 15 15 15 15 15 15 15 15 15 15 15 15 240 240 240 240 240 240 240 240 240 240 240 240
15 15 15 15 15 15 15 15 15 15 15 15 240 240 240 240 240 240 240 240 240 240 240 240 15 15 15 15 15 15 15 15 15 15 15 15 240 240 240 240 240 240 240 240 240 240 240 240 15 15 15 15 15 15 15 15 15 15 15 15 240 240 240 240 240 240 240 240 240 240 240 240 15 15 15 15 15 15 15 15 15 15 15 15 240 240 240 240 240 240 240 240 240 240 240 240
15 15 15 15 15 15 15 15 15 15 15 15 240 240 240 240 240 240 240 240 240 240 240 240 15 15 15 15 15 15 15 15 15 15 15 15 240 240 240 240 240 240 240 240 240 240 240 240 15 15 15 15 15 15 15 15 15 15 15 15 240 240 240 240 240 240 240 240 240 240 240 240 15 15 15 15 15 15 15 15 15 15 15 15 240 240 240 240 240 240 240 240 240 240 240 240
15 15 15 15 15 15 15 15 15 15 15 15 240 240 240 240 240 240 240 240 240 240 240 240 15 15 15 15 15 15 15 15 15 15 15 15 240 240 240 240 240 240 240 240 240 240 240 240 15 15 15 15 15 15 15 15 15 15 15 15 240 240 240 240 240 240 240 240 240 240 240 240 15 15 15 15 15 15 15 15 15 15 15 15 240 240 240 240 240 240 240 240 240 240 240 240
15 15 15 15 15 15 15 15 15 15 15 15 240 240 240 240 240 240 240 240 240 240 240 240 15 15 15 15 15 15 15 15 15 15 15 15 240 240 240 240 240 240 240 240 240 240 240 240 15 15 15 15 15 15 15 15 15 15 15 15 240 240 240 240 240 240 240 240 240 240 240 240 15 15 15 15 15 15 15 15 15 15 15 15 240 240 240 240 240 240 240 240 240 240 240 240
15 15 15 15 15 15 15 15 15 15 15 15 240 240 240 240 240 240 240 240 240 240 240 240 15 15 15 15 15 15 15 15 15 15 15 15 240 240 240 240 240 240 240 240 240 240 240 240 15 15 15 15 15 15 15 15 15 15 15 15 240 240 240 240 240 240 240 240 240 240 240 240 15 15 15 15 15 15 15 15 15 15 15 15 240 240 240 240 240 240 240 240 240 240 240 240
240 240 240 240 240 240 240 240 240 240 240 240 15 15 15 15 15 15 15 15 15 15 15 15 240 240 240 240 240 240 240 240 240 240 240 240 15 15 15 15 15 15 15 15 15 15 15 15 240 240 240 240 240 240 240 240 240 240 240 240 15 15 15 15 15 15 15 15 15 15 15 15 240 240 240 240 240 240 240 240 240 240 240 240 15 15 15 15 15 15 15 15 15 15 15 15
240 240 240 240 240 240 240 240 240 240 240 240 15 15 15 15 15 15 15 15 15 15 15 15 240 240 240 240 240 240 240 240 240 240 240 240 15 15 15 15 15 15 15 15 15 15 15 15 240 240 240 240 240 240 240 240 240 240 240 240 15 15 15 15 15 15 15 15 15 15 15 15 240 240 240 240 240 240 240 240 240 240 240 240 15 15 15 15 15 15 15 15 15 15 15 15
240 240 240 240 240 240 240 240 240 240 240 240 15 15 15 15 15 15 15 15 15 15 15 15 240 240 240 240 240 240 240 240 240 240 240 240 15 15 15 15 15 15 15 15 15 15 15 15 240 240 240 240 240 240 240 240 240 240 240 240 15 15 15 15 15 15 15 15 15 15 15 15 240 240 240 240 240 240 240 240 240 240 240 240 15 15 15 15 15 15 15 15 15 15 15 15
240 240 240 240 240 240 240 240 240 240 240 240 15 15 15 15 15 15 15 15 15 15 15 15 240 240 240 240 240 240 240 240 240 240 240 240 15 15 15 15 15 15 15 15 15 15 15 15 240 240 240 240 240 240 240 240 240 240 240 240 15 15 15 15 15 15 15 15 15 15 15 15 240 240 240 240 240 240 240 240 240 240 240 240 15 15 15 15 15 15 15 15 15 15 15 15
240 240 240 240 240 240 240 240 240 240 240 240 15 15 15 15 15 15 15 15 15 15 15 15 240 240 240 240 240 240 240 240 240 240 240 240 15 15 15 15 15 15 15 15 15 15 15 15 240 240 240 240 240 240 240 240 240 240 240 240 15 15 15 15 15 15 15 15 15 15 15 15 240 240 240 240 240 240 240 240 240 240 240 240 15 15 15 15 15 15 15 15 15 15 15 15
240 240 240 240 240 240 240 240 240 240 240 240 15 15 15 15 15 15 15 15 15 15 15 15 240 240 240 240 240 240 240 240 240 240 240 240 15 15 15 15 15 15 15 15 15 15 15 15 240 240 240 240 240 240 240 240 240 240 240 240 15 15 15 15 15 15 15 15 15 15 15 15 240 240 240 240 240 240 240 240 240 240 240 240 15 15 15 15 15 15 15 15 15 15 15 15
240 240 240 240 240 240 240 240 240 240 240 240 15 15 15 15 15 15 15 15 15 15 15 15 240 240 240 240 240 240 240 240 240 240 240 240 15 15 15 15 15 15 15 15 15 15 15 15 240 240 240 240 240 240 240 240 240 240 240 240 15 15 15 15 15 15 15 15 15 15 15 15 240 240 240 240 240 240 240 240 240 240 240 240 15 15 15 15 15 15 15 15 15 15 15 15
240 240 240 240 240 240 240 240 240 240 240 240 15 15 15 15 15 15 15 15 15 15 15 15 240 240 240 240 240 240 240 240 240 240 240 240 15 15 15 15 15 15 15 15 15 15 15 15 240 240 240 240 240 240 240 240 240 240 240 240 15 15 15 15 15 15 15 15 15 15 15 15 240 240 240 240 240 240 240 240 240 240 240 240 15 15 15 15 15 15 15 15 15 15 15 15
240 240 240 240 240 240 240 240 240 240 240 240 15 15 15 15 15 15 15 15 15 15 15 15 240 240 240 240 240 240 240 240 240 240 240 240 15 15 15 15 15 15 15 15 15 15 15 15 240 240 240 240 240 240 240 240 240 240 240 240 15 15 15 15 15 15 15 15 15 15 15 15 240 240 240 240 240 240 240 240 240 240 240 240 15 15 15 15 15 15 15 15 15 15 15 15
240 240 240 240 240 240 240 240 240 240 240 240 15 15 15 15 15 15 15 15 15 15 15 15 240 240 240 240 240 240 240 240 240 240 240 240 15 15 15 15 15 15 15 15 15 15 15 15 240 240 240 240 240 240 240 240 240 240 240 240 15 15 15 15 15 15 15 15 15 15 15 15 240 240 240 240 240 240 240 240 240 240 240 240 15 15 15 15 15 15 15 15 15 15 15 15
240 240 240 240 240 240 240 240 240 240 240 240 15 15 15 15 15 15 15 15 15 15 15 15 240 240 240 240 240 240 240 240 240 240 240 240 15 15 15 15 15 15 15 15 15 15 15 15 240 240 240 240 240 240 240 240 240 240 240 240 15 15 15 15 15 15 15 15 15 15 15 15 240 240 240 240 240 240 240 240 240 240 240 240 15 15 15 15 15 15 15 15 15 15 15 15
240 240 240 240 240 240 240 240 240 240 240 240 15 15 15 15 15 15 15 15 15 15 15 15 240 240 240 240 240 240 240 240 240 240 240 240 15 15 15 15 15 15 15 15 15 15 15 15 240 240 240 240 240 240 240 240 240 240 240 240 15 15 15 15 15 15 15 15 15 15 15 15 240 240 240 240 240 240 240 240 240 240 240 240 15 15 15 15 15 15 15 15 15 15 15 15
15 15 15 15 15 15 15 15 15 15 15 15 240 240 240 240 240 240 240 240 240 240 240 240 15 15 15 15 15 15 15 15 15 15 15 15 240 240 240 240 240 240 240 240 240 240 240 240 15 15 15 15 15 15 15 15 15 15 15 15 240 240 240 240 240 240 240 240 240 240 240 240 15 15 15 15 15 15 15 15 15 15 15 15 240 240 240 240 240 240 240 240 240 240 240 240
15 15 15 15 15 15 15 15 15 15 15 15 240 240 240 240 240 240 240 240 240 240 240 240 15 15 15 15 15 15 15 15 15 15 15 15 240 240 240 240 240 240 240 240 240 240 240 240 15 15 15 15 15 15 15 15 15 15 15 15 240 240 240 240 240 240 240 240 240 240 240 240 15 15 15 15 15 15 15 15 15 15 15 15 240 240 240 240 240 240 240 240 240 240 240 240
15 15 15 15 15 15 15 15 15 15 15 15 240 240 240 240 240 240 240 240 240 240 240 240 15 15 15 15 15 15 15 15 15 15 15 15 240 240 240 240 240 240 240 240 240 240 240 240 15 15 15 15 15 15 15 15 15 15 15 15 240 240 240 240 240 240 240 240 240 240 240 240 15 15 15 15 15 15 15 15 15 15 15 15 240 240 240 240 240 240 240 240 240 240 240 240
15 15 15 15 15 15 15 15 15 15 15 15 240 240 240 240 240 240 240 240 240 240 240 240 15 15 15 15 15 15 15 15 15 15 15 15 240 240 240 240 240 240 240 240 240 240 240 240 15 15 15 15 15 15 15 15 15 15 15 15 240 240 240 240 240 240 240 240 240 240 240 240 15 15 15 15 15 15 15 15 15 15 15 15 240 240 240 240 240 240 240 240 240 240 240 240
15 15 15 15 15 15 15 15 15 15 15 15 240 240 240 240 240 240 240 240 240 240 240 240 15 15 15 15 15 15 15 15 15 15 15 15 240 240 240 240 240 240 240 240 240 240 240 240 15 15 15 15 15 15 15 15 15 15 15 15 240 240 240 240 240 240 240 240 240 240 240 240 15 15 15 15 15 15 15 15 15 15 15 15 240 240 240 240 240 240 240 240 240 240 240 240
15 15 15 15 15 15 15 15 15 15 15 15 240 240 240 240 240 240 240 240 240 240 240 240 15 15 15 15 15 15 15 15 15 15 15 15 240 240 240 240 240 240 240 240 240 240 240 240 15 15 15 15 15 15 15 15 15 15 15 15 240 240 240 240 240 240 240 240 240 240 240 240 15 15 15 15 15 15 15 15 15 15 15 15 240 240 240 240 240 240 240 240 240 240 240 240
15 15 15 15 15 15 15 15 15 15 15 15 240 240 240 240 240 240 240 240 240 240 240 240 15 15 15 15 15 15 15 15 15 15 15 15 240 240 240 240 240 240 240 240 240 240 240 240 15 15 15 15 15 15 15 15 15 15 15 15 240 240 240 240 240 240 240 240 240 240 240 240 15 15 15 15 15 15 15 15 15 15 15 15 240 240 240 240 240 240 240 240 240 240 240 240
15 15 15 15 15 15 15 15 15 15 15 15 240 240 240 240 240 240 240 240 240 240 240 240 15 15 15 15 15 15 15 15 15 15 15 15 240 240 240 240 240 240 240 240 240 240 240 240 15 15 15 15 15 15 15 15 15 15 15 15 240 240 240 240 240 240 240 240 240 240 240 240 15 15 15 15 15 15 15 15 15 15 15 15 240 240 240 240 240 240 240 240 240 240 240 240
15 15 15 15 15 15 15 15 15 15 15 15 240 240 240 240 240 240 240 240 240 240 240 240 15 15 15 15 15 15 15 15 15 15 15 15 240 240 240 240 240 240 240 240 240 240 240 240 15 15 15 15 15 15 15 15 15 15 15 15 240 240 240 240 240 240 240 240 240 240 240 240 15 15 15 15 15 15 15 15 15 15 15 15 240 240 240 240 240 240 240 240 240 240 240 240
15 15 15 15 15 15 15 15 15 15 15 15 240 240 240 240 240 240 240 240 240 240 240 240 15 15 15 15 15 15 15 15 15 15 15 15 240 240 240 240 240 240 240 240 240 240 240 240 15 15 15 15 15 15 15 15 15 15 15 15 240 240 240 240 240 240 240 240 240 240 240 240 15 15 15 15 15 15 15 15 15 15 15 15 240 240 240 240 240 240 240 240 240 240 240 240
15 15 15 15 15 15 15 15 15 15 15 15 240 240 240 240 240 240 240 240 240 240 240 240 15 15 15 15 15 15 15 15 15 15 15 15 240 240 240 240 240 240 240 240 240 240 240 240 15 15 15 15 15 15 15 15 15 15 15 15 240 240 240 240 240 240 240 240 240 240 240 240 15 15 15 15 15 15 15 15 15 15 15 15 240 240 240 240 240 240 240 240 240 240 240 240
15 15 15 15 15 15 15 15 15 15 15 15 240 240 240 240 240 240 240 240 240 240 240 240 15 15 15 15 15 15 15 15 15 15 15 15 240 240 240 240 240 240 240 240 240 240 240 240 15 15 15 15 15 15 15 15 15 15 15 15 240 240 240 240 240 240 240 240 240 240 240 240 15 15 15 15 15 15 15 15 15 15 15 15 240 240 240 240 240 240 240 240 240 240 240 240
240 240 240 240 240 240 240 240 240 240 240 240 15 15 15 15 15 15 15 15 15 15 15 15 240 240 240 240 240 240 240 240 240 240 240 240 15 15 15 15 15 15 15 15 15 15 15 15 240 240 240 240 240 240 240 240 240 240 240 240 15 15 15 15 15 15 15 15 15 15 15 15 240 240 240 240 240 240 240 240 240 240 240 240 15 15 15 15 15 15 15 15 15 15 15 15
240 240 240 240 240 240 240 240 240 240 240 240 15 15 15 15 15 15 15 15 15 15 15 15 240 240 240 240 240 240 240 240 240 240 240 240 15 15 15 15 15 15 15 15 15 15 15 15 240 240 240 240 240 240 240 240 240 240 240 240 15 15 15 15 15 15 15 15 15 15 15 15 240 240 240 240 240 240 240 240 240 240 240 240 15 15 15 15 15 15 15 15 15 15 15 15
240 240 240 240 240 240 240 240 240 240 240 240 15 15 15 15 15 15 15 15 15 15 15 15 240 240 240 240 240 240 240 240 240 240 240 240 15 15 15 15 15 15 15 15 15 15 15 15 240 240 240 240 240 240 240 240 240 240 240 240 15 15 15 15 15 15 15 15 15 15 15 15 240 240 240 240 240 240 240 240 240 240 240 240 15 15 15 15 15 15 15 15 15 15 15 15
240 240 240 240 240 240 240 240 240 240 240 240 15 15 15 15 15 15 15 15 15 15 15 15 240 240 240 240 240 240 240 240 240 240 240 240 15 15 15 15 15 15 15 15 15 15 15 15 240 240 240 240 240 240 240 240 240 240 240 240 15 15 15 15 15 15 15 15 15 15 15 15 240 240 240 240 240 240 240 240 240 240 240 240 15 15 15 15 15 15 15 15 15 15 15 15
240 240 240 240 240 240 240 240 240 240 240 240 15 15 15 15 15 15 15 15 15 15 15 15 240 240 240 240 240 240 240 240 240 240 240 240 15 15 15 15 15 15 15 15 15 15 15 15 240 240 240 240 240 240 240 240 240 240 240 240 15 15 15 15 15 15 15 15 15 15 15 15 240 240 240 240 240 240 240 240 240 240 240 240 15 15 15 15 15 15 15 15 15 15 15 15
240 240 240 240 240 240 240 240 240 240 240 240 15 15 15 15 15 15 15 15 15 15 15 15 240 240 240 240 240 240 240 240 240 240 240 240 15 15 15 15 15 15 15 15 15 15 15 15 240 240 240 240 240 240 240 240 240 240 240 240 15 15 15 15 15 15 15 15 15 15 15 15 240 240 240 240 240 240 240 240 240 240 240 240 15 15 15 15 15 15 15 15 15 15 15 15
240 240 240 240 240 240 240 240 240 240 240 240 15 15 15 15 15 15 15 15 15 15 15 15 240 240 240 240 240 240 240 240 240 240 240 240 15 15 15 15 15 15 15 15 15 15 15 15 240 240 240 240 240 240 240 240 240 240 240 240 15 15 15 15 15 15 15 15 15 15 15 15 240 240 240 240 240 240 240 240 240 240 240 240 15 15 15 15 15 15 15 15 15 15 15 15
240 240 240 240 240 240 240 240 240 240 240 240 15 15 15 15 15 15 15 15 15 15 15 15 240 240 240 240 240 240 240 240 240 240 240 240 15 15 15 15 15 15 15 15 15 15 15 15 240 240 240 240 240 240 240 240 240 240 240 240 15 15 15 15 15 15 15 15 15 15 15 15 240 240 240 240 240 240 240 240 240 240 240 240 15 15 15 15 15 15 15 15 15 15 15 15
240 240 240 240 240 240 240 240 240 240 240 240 15 15 15 15 15 15 15 15 15 15 15 15 240 240 240 240 240 240 240 240 240 240 240 240 15 15 15 15 15 15 15 15 15 15 15 15 240 240 240 240 240 240 240 240 240 240 240 240 15 15 15 15 15 15 15 15 15 15 15 15 240 240 240 240 240 240 240 240 240 240 240 240 15 15 15 15 15 15 15 15 15 15 15 15
240 240 240 240 240 240 240 240 240 240 240 240 15 15 15 15 15 15 15 15 15 15 15 15 240 240 240 240 240 240 240 240 240 240 240 240 15 15 15 15 15 15 15 15 15 15 15 15 240 240 240 240 240 240 240 240 240 240 240 240 15 15 15 15 15 15 15 15 15 15 15 15 240 240 240 240 240 240 240 240 240 240 240 240 15 15 15 15 15 15 15 15 15 15 15 15
240 240 240 240 240 240 240 240 240 240 240 240 15 15 15 15 15 15 15 15 15 15 15 15 240 240 240 240 240 240 240 240 240 240 240 240 15 15 15 15 15 15 15 15 15 15 15 15 240 240 240 240 240 240 240 240 240 240 240 240 15 15 15 15 15 15 15 15 15 15 15 15 240 240 240 240 240 240 240 240 240 240 240 240 15 15 15 15 15 15 15 15 15 15 15 15
240 240 240 240 240 240 240 240 240 240 240 240 15 15 15 15 15 15 15 15 15 15 15 15 240 240 240 240 240 240 240 240 240 240 240 240 15 15 15 15 15 15 15 15 15 15 15 15 240 240 240 240 240 240 240 240 240 240 240 240 15 15 15 15 15 15 15 15 15 15 15 15 240 240 240 240 240 240 240 240 240 240 240 240 15 15 15 15 15 15 15 15 15 15 15 15
